assets/svg/cloud_icon.svg

<svg fill="none" height="48" viewBox="0 0 48 48" width="48" xmlns="http://www.w3.org/2000/svg"><path clip-rule="evenodd" d="m10.0011 20.8322c.0898-7.1023 5.8752-12.8322 12.9989-12.8322 5.5712 0 10.32 3.5031 12.1712 8.424 5.0888 1.3913 8.8288 6.0452 8.8288 11.576 0 6.6274-5.3726 12-12 12h-18c-5.52284 0-10-4.4772-10-10 0-4.1028 2.46936-7.625 6.0011-9.1678zm12.9989-8.8322c-4.9706 0-9 4.0294-9 9 0 .3382.0186.6712.0546.9984.1113 1.011-.5444 1.9372-1.5176 2.1808-2.60764.6526-4.537 3.0138-4.537 5.8208 0 3.3138 2.6863 6 6 6h18c4.4182 0 8-3.5818 8-8 0-3.971-2.8952-7.2696-6.6896-7.8936-.7796-.1281-1.415-.6997-1.6222-1.4654-1.0362-3.8277-4.5362-6.641-8.6882-6.641z" fill="#fff" fill-rule="evenodd"/></svg>

<svg width="48" height="48" viewBox="0 0 48 48" fill="none" xmlns="http://www.w3.org/2000/svg">
<path fill-rule="evenodd" clip-rule="evenodd" d="M10.0011 20.8322C10.0909 13.7299 15.8763 8 23 8C28.5712 8 33.32 11.5031 35.1712 16.424C40.26 17.8153 44 22.4692 44 28C44 34.6274 38.6274 40 32 40H14C8.47716 40 4 35.5228 4 30C4 25.8972 6.46936 22.375 10.0011 20.8322ZM23 12C18.0294 12 14 16.0294 14 21C14 21.3382 14.0186 21.6712 14.0546 21.9984C14.1659 23.0094 13.5102 23.9356 12.537 24.1792C9.92936 24.8318 8 27.193 8 30C8 33.3138 10.6863 36 14 36H32C36.4182 36 40 32.4182 40 28C40 24.029 37.1048 20.7304 33.3104 20.1064C32.5308 19.9783 31.8954 19.4067 31.6882 18.641C30.652 14.8133 27.152 12 23 12Z" fill="white"/>
</svg>
